X:221
T:Morpeth Rant, Old (Tom Hughes' version of Morpeth Rant)
R: polka 32 rant reel
M:4/4
L:1/8
S:Tom Hughes, Border fiddler, Springthyme Records SPR 1005
K:G
BA|"G" G2 DD B,2 DG|"C" ECEE "Bm" DB,DF|"G" G2 AB "Am" cBAG|"D" F2 A2 AcBA|!
"G" G2 DD B,2 DG|"C" ECEE "Bm" DB,DF|"G" G2 AB "D7" cBAF|"G" D2 G2G2:|!
ef|"C" gfed "G" B2 GB|"Am" cBAG "D" F2 DF|"C" ECEB "Am" cBAG|"D" F2 D2 D2 F2|!
"C" ECEB "Am" cBAG|"D" FDFA dcBA|"G" Ggfg "Em7" edBG|"D" A2 "G" G2 G2:||

